Papirus/32x32/apps/qvge.svg

<svg width="32" height="32" version="1" xmlns="http://www.w3.org/2000/svg">
 <rect x="2" y="3" width="28" height="28" rx="1.4" ry="1.4" style="opacity:.2"/>
 <rect x="2" y="2" width="28" height="28" rx="1.4" ry="1.4" style="fill:#e4e4e4"/>
 <path d="m16 5a3 3 0 0 0-0.720703 0.09375 3 3 0 0 0-0.08008 0.017578 3 3 0 0 0-0.638672 0.265625 3 3 0 0 0-0.09766 0.052734 3 3 0 0 0-0.542969 0.4179687 3 3 0 0 0-0.07227 0.072266 3 3 0 0 0-0.417968 0.5429687 3 3 0 0 0-0.05274 0.097656 3 3 0 0 0-0.265625 0.6386719 3 3 0 0 0-0.01758 0.080078 3 3 0 0 0-0.093733 0.7207037 3 3 0 0 0 2 2.820313v1.179687l1 2 1-2v-1.179687a3 3 0 0 0 2-2.820313 3 3 0 0 0-0.04492-0.5058594 3 3 0 0 0-0.01367-0.080078 3 3 0 0 0-0.144531-0.4980469 3 3 0 0 0-0.0059-0.015625 3 3 0 0 0-0.105469-0.2382812 3 3 0 0 0-0.0039-0.00781 3 3 0 0 0-0.115235-0.2070313 3 3 0 0 0-0.04492-0.070312 3 3 0 0 0-0.126953-0.1855469 3 3 0 0 0-0.0332-0.039062 3 3 0 0 0-0.339844-0.3691407 3 3 0 0 0-0.0059-0.00586 3 3 0 0 0-0.207031-0.171875 3 3 0 0 0-0.02148-0.015625 3 3 0 0 0-0.164062-0.1113282 3 3 0 0 0-0.08008-0.050781 3 3 0 0 0-0.205078-0.1132813 3 3 0 0 0-0.0059-0.00195 3 3 0 0 0-0.248047-0.109375 3 3 0 0 0-0.01953-0.00586 3 3 0 0 0-0.488281-0.140625 3 3 0 0 0-0.07031-0.011719 3 3 0 0 0-0.505759-0.0449271zm3 3 2 1h1.179688a3 3 0 0 0 2.820312 2 3 3 0 0 0 3-3 3 3 0 0 0-0.04492-0.5058594 3 3 0 0 0-0.01367-0.080078 3 3 0 0 0-0.144531-0.4980469 3 3 0 0 0-0.0059-0.015625 3 3 0 0 0-0.105469-0.2382812 3 3 0 0 0-0.0039-0.00781 3 3 0 0 0-0.115235-0.2070313 3 3 0 0 0-0.04492-0.070312 3 3 0 0 0-0.126953-0.1855469 3 3 0 0 0-0.0332-0.039062 3 3 0 0 0-0.339844-0.3691407 3 3 0 0 0-0.0059-0.00586 3 3 0 0 0-0.207031-0.171875 3 3 0 0 0-0.02148-0.015625 3 3 0 0 0-0.164062-0.1113282 3 3 0 0 0-0.08008-0.050781 3 3 0 0 0-0.205078-0.1132813 3 3 0 0 0-0.0059-0.00195 3 3 0 0 0-0.248047-0.109375 3 3 0 0 0-0.01953-0.00586 3 3 0 0 0-0.488281-0.140625 3 3 0 0 0-0.07031-0.011719 3 3 0 0 0-0.505759-0.0449271 3 3 0 0 0-0.720703 0.09375 3 3 0 0 0-0.08008 0.017578 3 3 0 0 0-0.638672 0.265625 3 3 0 0 0-0.09766 0.052734 3 3 0 0 0-0.542969 0.4179687 3 3 0 0 0-0.07227 0.072266 3 3 0 0 0-0.417968 0.5429687 3 3 0 0 0-0.05273 0.097656 3 3 0 0 0-0.19726 0.4394536h-1.179688zm6 3-1 2v9.179688a2.9999986 2.9999986 0 0 0-0.439453 0.197265 2.9999986 2.9999986 0 0 0-0.09766 0.05273 2.9999986 2.9999986 0 0 0-0.462887 0.337895v-1.767578l-3-2h-1.767578a3 3 0 0 0 0.767578-2 3 3 0 0 0-0.04492-0.505859 3 3 0 0 0-0.01367-0.08008 3 3 0 0 0-0.144531-0.498046 3 3 0 0 0-0.0059-0.01563 3 3 0 0 0-0.105469-0.238282 3 3 0 0 0-0.0039-0.0078 3 3 0 0 0-0.115235-0.207031 3 3 0 0 0-0.04492-0.07031 3 3 0 0 0-0.126953-0.185547 3 3 0 0 0-0.0332-0.03906 3 3 0 0 0-0.339844-0.369141 3 3 0 0 0-0.0059-0.0059 3 3 0 0 0-0.207031-0.171875 3 3 0 0 0-0.02148-0.01563 3 3 0 0 0-0.164062-0.111328 3 3 0 0 0-0.08008-0.05078 3 3 0 0 0-0.205078-0.113281 3 3 0 0 0-0.0059-2e-3 3 3 0 0 0-0.248047-0.109375 3 3 0 0 0-0.01953-0.0059 3 3 0 0 0-0.488281-0.140625 3 3 0 0 0-0.07031-0.01172 3 3 0 0 0-0.505759-0.0448 3 3 0 0 0-0.720703 0.09375 3 3 0 0 0-0.08008 0.01758 3 3 0 0 0-0.638672 0.265625 3 3 0 0 0-0.09766 0.05274 3 3 0 0 0-0.542969 0.417968 3 3 0 0 0-0.07227 0.07227 3 3 0 0 0-0.417968 0.542969 3 3 0 0 0-0.05274 0.09766 3 3 0 0 0-0.19725 0.439438h-1.179688l-2 1 2 1h1.179688a3 3 0 0 0 2.820312 2 3 3 0 0 0 2-0.767578v1.767578l3 2h1.767578a2.9999986 2.9999986 0 0 0-0.33789 0.462891 2.9999986 2.9999986 0 0 0-0.05273 0.09766 2.9999986 2.9999986 0 0 0-0.19727 0.439449h-5.179688l-2 1 2 1h5.179688a2.9999986 2.9999986 0 0 0 2.820312 2 2.9999986 2.9999986 0 0 0 2.953125-2.503906 2.9999986 2.9999986 0 0 1 2e-3 0.0039 2.9999986 2.9999986 0 0 0 2e-3 -0.01563 2.9999986 2.9999986 0 0 0 0.042875-0.484364 2.9999986 2.9999986 0 0 0-0.04492-0.505859 2.9999986 2.9999986 0 0 0-0.01367-0.08008 2.9999986 2.9999986 0 0 0-0.144531-0.498046 2.9999986 2.9999986 0 0 0-0.0059-0.01563 2.9999986 2.9999986 0 0 0-0.105469-0.238282 2.9999986 2.9999986 0 0 0-0.0039-0.0078 2.9999986 2.9999986 0 0 0-0.115235-0.207031 2.9999986 2.9999986 0 0 0-0.04492-0.07031 2.9999986 2.9999986 0 0 0-0.126953-0.185547 2.9999986 2.9999986 0 0 0-0.0332-0.03906 2.9999986 2.9999986 0 0 0-0.339844-0.369141 2.9999986 2.9999986 0 0 0-0.0059-0.0059 2.9999986 2.9999986 0 0 0-0.207031-0.171875 2.9999986 2.9999986 0 0 0-0.02148-0.01563 2.9999986 2.9999986 0 0 0-0.164062-0.111328 2.9999986 2.9999986 0 0 0-0.08008-0.05078 2.9999986 2.9999986 0 0 0-0.205078-0.113281 2.9999986 2.9999986 0 0 0-0.0059-2e-3 2.9999986 2.9999986 0 0 0-0.248047-0.109375 2.9999986 2.9999986 0 0 0-0.01953-0.0059 2.9999986 2.9999986 0 0 0-0.06435-0.02527v-9.171875zm-10 14a3 3 0 0 0-0.04492-0.505859 3 3 0 0 0-0.01367-0.08008 3 3 0 0 0-0.144531-0.498046 3 3 0 0 0-0.0059-0.01563 3 3 0 0 0-0.105469-0.238282 3 3 0 0 0-0.0039-0.0078 3 3 0 0 0-0.115235-0.207031 3 3 0 0 0-0.04492-0.07031 3 3 0 0 0-0.126953-0.185547 3 3 0 0 0-0.0332-0.03906 3 3 0 0 0-0.339844-0.369141 3 3 0 0 0-0.0059-0.0059 3 3 0 0 0-0.207031-0.171875 3 3 0 0 0-0.02149-0.01563 3 3 0 0 0-0.164062-0.111328 3 3 0 0 0-0.08008-0.05078 3 3 0 0 0-0.205078-0.113281 3 3 0 0 0-0.0059-2e-3 3 3 0 0 0-0.248047-0.109375 3 3 0 0 0-0.01953-0.0059 3 3 0 0 0-0.488281-0.140625 3 3 0 0 0-0.07031-0.01172 3 3 0 0 0-0.505749-0.0448 3 3 0 0 0-0.720703 0.09375 3 3 0 0 0-0.08008 0.01758 3 3 0 0 0-0.638672 0.265625 3 3 0 0 0-0.09766 0.05273 3 3 0 0 0-0.5429691 0.417968 3 3 0 0 0-0.072266 0.07227 3 3 0 0 0-0.4179687 0.542969 3 3 0 0 0-0.052734 0.09766 3 3 0 0 0-0.265625 0.638672 3 3 0 0 0-0.0175722 0.080073 3 3 0 0 0-0.09375 0.720703 3 3 0 0 0 3 3 3 3 0 0 0 3-3zm-5-8a3 3 0 0 0-0.044922-0.505859 3 3 0 0 0-0.013672-0.08008 3 3 0 0 0-0.1445312-0.498046 3 3 0 0 0-0.00586-0.01563 3 3 0 0 0-0.1054687-0.238282 3 3 0 0 0-0.00391-0.0078 3 3 0 0 0-0.1152344-0.207031 3 3 0 0 0-0.044922-0.07031 3 3 0 0 0-0.1269532-0.185547 3 3 0 0 0-0.033203-0.03906 3 3 0 0 0-0.3398437-0.369141 3 3 0 0 0-0.00586-0.0059 3 3 0 0 0-0.2070312-0.171875 3 3 0 0 0-0.021484-0.01563 3 3 0 0 0-0.1640625-0.111328 3 3 0 0 0-0.080078-0.05078 3 3 0 0 0-0.2050782-0.113281 3 3 0 0 0-0.00586-2e-3 3 3 0 0 0-0.2480468-0.109375 3 3 0 0 0-0.019531-0.0059 3 3 0 0 0-0.4882762-0.140504 3 3 0 0 0-0.0703125-0.011719 3 3 0 0 0-0.5058594-0.044922 3 3 0 0 0-0.7207031 0.09375 3 3 0 0 0-0.080078 0.01758 3 3 0 0 0-0.6386719 0.265625 3 3 0 0 0-0.097656 0.05274 3 3 0 0 0-0.5429687 0.417968 3 3 0 0 0-0.072266 0.07227 3 3 0 0 0-0.4179687 0.542969 3 3 0 0 0-0.052734 0.09766 3 3 0 0 0-0.265625 0.638672 3 3 0 0 0-0.0175786 0.080063 3 3 0 0 0-0.09375 0.720703 3 3 0 0 0 3 3 3 3 0 0 0 3-3z" style="opacity:.1;stop-color:#000000"/>
 <path d="M 3.4003906 2 C 2.6247906 2 2 2.6247906 2 3.4003906 L 2 4.4003906 C 2 3.6247906 2.6247906 3 3.4003906 3 L 28.599609 3 C 29.375209 3 30 3.6247906 30 4.4003906 L 30 3.4003906 C 30 2.6247906 29.375209 2 28.599609 2 L 3.4003906 2 z" style="fill:#ffffff;opacity:.2"/>
 <path d="m10 16 1.999999-1h2.000001v2h-2z" style="fill:#999999;stop-color:#000000"/>
 <circle cx="16" cy="16" r="3" style="fill:#c162c9;stop-color:#000000"/>
 <circle cx="7" cy="16" r="3" style="fill:#009688;stop-color:#000000"/>
 <path d="M 16,13 14.999999,10.999999 V 8.9999989 H 17 V 11 Z" style="fill:#999999;stop-color:#000000"/>
 <circle cx="16" cy="7" r="3" style="fill:#03a9f4;stop-color:#000000"/>
 <path d="m19 7 1.999999-1h2.000001v2h-2z" style="fill:#999999;stop-color:#000000"/>
 <circle cx="25" cy="7" r="3" style="fill:#ffc107;stop-color:#000000"/>
 <circle cx="12" cy="24" r="3" style="fill:#ffffff;stop-color:#000000"/>
 <path d="m25 10 1 2v10h-2v-10z" style="fill:#999999;stop-color:#000000"/>
 <path d="m15 24 1.999999-1h6.000001v2h-6z" style="fill:#999999;stop-color:#000000"/>
 <path d="M 18.000001,18 18,20.000001 21,22 22.999999,22 23,19.999999 20,18 Z" style="fill:#999999;stop-color:#000000"/>
 <circle cx="25.000002" cy="24" r="2.9999986" style="fill:#fa3e30;stop-color:#000000"/>
 <path d="m16 4a3 3 0 0 0-3 3 3 3 0 0 0 0.064453 0.5 3 3 0 0 1 2.935547-2.5 3 3 0 0 1 2.943359 2.4296875 3 3 0 0 0 0.056641-0.4296875 3 3 0 0 0-3-3zm9 0a3 3 0 0 0-3 3 3 3 0 0 0 0.064453 0.5 3 3 0 0 1 2.935547-2.5 3 3 0 0 1 2.943359 2.4296875 3 3 0 0 0 0.056641-0.4296875 3 3 0 0 0-3-3zm-18 9a3 3 0 0 0-3 3 3 3 0 0 0 0.0644531 0.5 3 3 0 0 1 2.9355469-2.5 3 3 0 0 1 2.9433594 2.429688 3 3 0 0 0 0.0566406-0.429688 3 3 0 0 0-3-3zm9 0a3 3 0 0 0-3 3 3 3 0 0 0 0.064453 0.5 3 3 0 0 1 2.935547-2.5 3 3 0 0 1 2.943359 2.429688 3 3 0 0 0 0.056641-0.429688 3 3 0 0 0-3-3zm-4 8a3 3 0 0 0-3 3 3 3 0 0 0 0.0644531 0.5 3 3 0 0 1 2.9355469-2.5 3 3 0 0 1 2.943359 2.429688 3 3 0 0 0 0.056641-0.429688 3 3 0 0 0-3-3zm13 0a2.9999986 2.9999986 0 0 0-3 3 2.9999986 2.9999986 0 0 0 0.064453 0.5 2.9999986 2.9999986 0 0 1 2.935547-2.5 2.9999986 2.9999986 0 0 1 2.955078 2.5 2.9999986 2.9999986 0 0 0 0.044922-0.5 2.9999986 2.9999986 0 0 0-3-3z" style="fill:#ffffff;opacity:.2;stop-color:#000000"/>
</svg>

<svg xmlns="http://www.w3.org/2000/svg" width="32" height="32" version="1">
 <rect style="opacity:0.2" width="28" height="28" x="2" y="3" rx="1.4" ry="1.4"/>
 <rect style="fill:#e4e4e4" width="28" height="28" x="2" y="2" rx="1.4" ry="1.4"/>
 <path style="opacity:0.1" d="M 28,25 A 3,3 0 0 1 25,28 3,3 0 0 1 22,25 3,3 0 0 1 25,22 3,3 0 0 1 28,25 Z M 15,25 A 3,3 0 0 1 12,28 3,3 0 0 1 9,25 3,3 0 0 1 12,22 3,3 0 0 1 15,25 Z M 28,8 A 3,3 0 0 1 25,11 3,3 0 0 1 22,8 3,3 0 0 1 25,5 3,3 0 0 1 28,8 Z M 19,8 A 3,3 0 0 1 16,11 3,3 0 0 1 13,8 3,3 0 0 1 16,5 3,3 0 0 1 19,8 Z M 10,17 A 3,3 0 0 1 7,20 3,3 0 0 1 4,17 3,3 0 0 1 7,14 3,3 0 0 1 10,17 Z M 19,17 A 3,3 0 0 1 16,20 3,3 0 0 1 13,17 3,3 0 0 1 16,14 3,3 0 0 1 19,17 Z M 18,19 V 21 L 21,23 H 23 V 21 L 20,19 Z M 15,25 17,24 H 23 V 26 H 17 Z M 25,11 26,13 V 23 H 24 V 13 Z M 19,8 21,7 H 23 V 9 H 21 Z M 16,14 15,12 V 10 H 17 V 12 Z M 10,17 12,16 H 14 V 18 H 12 Z"/>
 <path style="fill:#999999" d="M 18,18 V 20 L 21,22 H 23 V 20 L 20,18 Z M 15,24 17,23 H 23 V 25 H 17 Z M 25,10 26,12 V 22 H 24 V 12 Z M 19,7 21,6 H 23 V 8 H 21 Z M 16,13 15,11 V 9 H 17 V 11 Z M 10,16 12,15 H 14 V 17 H 12 Z"/>
 <circle style="fill:#c162c9" cx="16" cy="16" r="3"/>
 <circle style="fill:#009688" cx="7" cy="16" r="3"/>
 <circle style="fill:#03a9f4" cx="16" cy="7" r="3"/>
 <circle style="fill:#ffc107" cx="25" cy="7" r="3"/>
 <circle style="fill:#f4f4f4" cx="12" cy="24" r="3"/>
 <circle style="fill:#fa3e30" cx="25" cy="24" r="3"/>
 <path style="fill:#ffffff;opacity:0.2" d="M 25,21 A 3,3 0 0 0 22,24 3,3 0 0 0 22.047,24.5 3,3 0 0 1 25,22 3,3 0 0 1 27.955,24.492 3,3 0 0 0 28,24 3,3 0 0 0 25,21 Z M 12,21 A 3,3 0 0 0 9,24 3,3 0 0 0 9.0469,24.5 3,3 0 0 1 12,22 3,3 0 0 1 14.955,24.492 3,3 0 0 0 15,24 3,3 0 0 0 12,21 Z M 25,4 A 3,3 0 0 0 22,7 3,3 0 0 0 22.047,7.5 3,3 0 0 1 25,5 3,3 0 0 1 27.955,7.4922 3,3 0 0 0 28,7 3,3 0 0 0 25,4 Z M 16,4 A 3,3 0 0 0 13,7 3,3 0 0 0 13.047,7.5 3,3 0 0 1 16,5 3,3 0 0 1 18.955,7.4922 3,3 0 0 0 19,7 3,3 0 0 0 16,4 Z M 7,13 A 3,3 0 0 0 4,16 3,3 0 0 0 4.0469,16.5 3,3 0 0 1 7,14 3,3 0 0 1 9.9551,16.492 3,3 0 0 0 10,16 3,3 0 0 0 7,13 Z M 16,13 A 3,3 0 0 0 13,16 3,3 0 0 0 13.047,16.5 3,3 0 0 1 16,14 3,3 0 0 1 18.955,16.492 3,3 0 0 0 19,16 3,3 0 0 0 16,13 Z"/>
 <path style="fill:#ffffff;opacity:0.2" d="M 3.4004 2 C 2.6248 2 2 2.6248 2 3.4004 L 2 4.4004 C 2 3.6248 2.6248 3 3.4004 3 L 28.6 3 C 29.375 3 30 3.6248 30 4.4004 L 30 3.4004 C 30 2.6248 29.375 2 28.6 2 L 3.4004 2 z"/>
</svg>
